X: 38129
T: Sporting Days Of Easter, The
R: reel
M: 4/4
K: Cmajor
Bc|:d2cA GE~E2|ABAG ~A3B|d2cA GE~E2|ABGE D4:|
cBcd eg~g2|a2ag egge|cBcd eg~g2|abge d3c|
cBcd eg~g2|a2ag egg2|fged cAGB|Add^c defe|

